X:1
T: Irish-American
C:
R:Reel
Q: 232
K:F
M:4/4
L:1/8
|:((3cde) |fa ge fc af|bg eg fd cB|AF cA dA cA|AG G^F Gd ef|
fa ge fc af|bg eg fd cB|AB cd ef ga|bg eg f2:|
|:fg|af cf Ac fg|af cf Ac fa|ba g^f gd g=f|eg fd ce fg|
af cf Ac fg|af bg ec de|fc dB cA BG|AF GE F2:|
